packages/kaspersky-hexa-ui-icons/src/iconsSVGs/64x42/FlagNo.svg

<svg xmlns="http://www.w3.org/2000/svg" width="64" height="42" fill="none" viewBox="0 0 64 42"><g clip-path="url(#a)"><rect width="64" height="42" fill="#fff" rx="5"/><path fill="#f14247" fill-rule="evenodd" d="M16.8 0H0v16.8h16.8zm8.4 0v16.8H64V0zM64 25.2H25.2V42H64zM16.8 42V25.2H0V42z" clip-rule="evenodd"/><path fill="#0a3a85" fill-rule="evenodd" d="M0 22.4h19.6V42h2.8V22.4h42.4v-2.8H22.4V0h-2.8v19.6H0z" clip-rule="evenodd"/></g><defs><clipPath id="a"><rect width="64" height="42" fill="#fff" rx="5"/></clipPath></defs></svg>

<svg width="64" height="42" viewBox="0 0 64 42" fill="none" xmlns="http://www.w3.org/2000/svg">
<g clip-path="url(#clip0_37941_2319)">
<rect width="64" height="42" rx="5" fill="white"/>
<path fill-rule="evenodd" clip-rule="evenodd" d="M16.8 0H0V16.8H16.8V0ZM25.2 0V16.8H64V0H25.2ZM64 25.2H25.2V42H64V25.2ZM16.8 42V25.2H0V42H16.8Z" fill="#F14247"/>
<path fill-rule="evenodd" clip-rule="evenodd" d="M0 22.4H19.6V42H22.4V22.4H64.8V19.6H22.4V0H19.6V19.6H0V22.4Z" fill="#0A3A85"/>
</g>
<defs>
<clipPath id="clip0_37941_2319">
<rect width="64" height="42" rx="5" fill="white"/>
</clipPath>
</defs>
</svg>
